assets/icons/uE03D-thumbnails.svg

<svg xmlns="http://www.w3.org/2000/svg" width="896" height="1232" viewBox="0 0 896 1232"><path d="M840 56q23 0 39.5 16.5T896 112v784q0 23-16.5 39.5T840 952H56q-23 0-39.5-16.5T0 896V112q0-23 16.5-39.5T56 56h784zM420 896V532H56v364h364zm0-420V112H56v364h364zm420 420V532H476v364h364zm0-420V112H476v364h364zM336 616H140v196h196V616zm0-420H140v196h196V196zm420 0H560v196h196V196zm0 420H560v196h196V616z"/></svg>

<?xml version="1.0" encoding="UTF-8" standalone="no"?><svg   xmlns:svg="http://www.w3.org/2000/svg"   xmlns="http://www.w3.org/2000/svg"   version="1.1"   width="896"   height="1232"   viewBox="0 0 896 1232">  <path     d="M840 56Q863 56 879.5 72.5T896 112V896Q896 919 879.5 935.5T840 952H56Q33 952 16.5 935.5T0 896V112Q0 89 16.5 72.5T56 56H840zM420 896V532H56V896H420zM420 476V112H56V476H420zM840 896V532H476V896H840zM840 476V112H476V476H840zM336 616H140V812H336V616zM336 196H140V392H336V196zM756 196H560V392H756V196zM756 616H560V812H756V616z"     id="icon177" /></svg>
